X:8121
T:Willie Taylor's Fiddle
O:england
S:Radio Scotland, 1991
R:Reel
M:4/4
L:1/8
K:A
cB|A2 GA FA E2|Acea fedc|dcdf eAce|c2 B2 B2 cB|
A2 GA FA E2|Acea fedc|dcdf ecdB|c2 A2 A2:|]
cd|eaga fecA|Bdfb gefg|a2 ga faea|c2 B2 B2 cd|
eaga fecA|Bdfb gefg|a2 ea caBa|c2 A2 A2 cd|
eaga fecA|Bdfb gefg|a2 ga faea|c2 B2 B2 cB|
A2 GA FA E2|Acea fedc|dcdf ecdB|c2 A2 A2|]


